X: 1
T: Starkens Polska
R: hambo-polska
Z: John Chambers <jc@trillian.mit.edu>
M: 3/4
L: 1/8
K: Dm
|: "Dm"D2 D>E F>G | A>^c d2 f2 | "A7"f>e e^c A>c \
|1,3 e/f/e/^c/ "Dm"d>A F>E :|2,4 "A7"e/f/e/^c/ "Dm"d4 :|
|: "Bb"B2 d2 f2 | "F"c/d/c/B/ A2 F2 | "C7"C2 (3ECE G>E \
|1,3 "F"F>G A>B c2 :|2,4 "F"Fz F4 :|
